packages/cfpb-icons/src/icons/piggy-bank-check.svg

<svg xmlns="http://www.w3.org/2000/svg" viewBox="0 0 994.88 1200" class="cf-icon-svg"><path d="M912.85 497.33h-38.5a344.17 344.17 0 00-78.55-131.25A322.14 322.14 0 01830.59 182a19.13 19.13 0 002-6.43 18.68 18.68 0 00-16.27-20.86 18.3 18.3 0 00-11.69 2.38L616.2 266.73a344.09 344.09 0 00-69.52-7.11H402.06A344.61 344.61 0 0063.94 537.47a66.92 66.92 0 000 133.7A344.77 344.77 0 00158.32 848q8.74 8.74 18 16.76v145.52a35.22 35.22 0 0035.17 35.12h107.97a35.21 35.21 0 0035.16-35.12v-64.6a340.48 340.48 0 0047.44 3.32h144.62a340.53 340.53 0 0047.48-3.35v64.66a35.22 35.22 0 0035.17 35.12h107.93a35.21 35.21 0 0035.16-35.12v-145.5q9.31-8 18-16.76a344 344 0 0083.93-136.75h38.51c45.1 0 82-36.94 82-82.08v-49.85a82.29 82.29 0 00-82.01-82.04zM385.26 319.89h190.81a35.16 35.16 0 110 70.32H385.26a35.16 35.16 0 110-70.32zm260.12 233.6l-146 252.9a39.36 39.36 0 01-30.76 19.53c-1.05.1-2.2.15-3.34.15A39.29 39.29 0 01435 811.89l-81.66-98a39.37 39.37 0 0160.5-50.39l45.55 54.67 117.77-204a39.37 39.37 0 0168.2 39.35z"/></svg>

<svg xmlns="http://www.w3.org/2000/svg" viewBox="0 0 994.88 1200" class="cf-icon-svg"><path d="M912.85,497.33H874.35A344.17,344.17,0,0,0,795.8,366.08,322.14,322.14,0,0,1,830.59,182a19.13,19.13,0,0,0,2-6.43,18.68,18.68,0,0,0-16.27-20.86,18.3,18.3,0,0,0-11.69,2.38L616.2,266.73a344.09,344.09,0,0,0-69.52-7.11H402.06A344.61,344.61,0,0,0,63.94,537.47a66.92,66.92,0,0,0,0,133.7A344.77,344.77,0,0,0,158.32,848q8.74,8.74,18,16.76v145.52a35.22,35.22,0,0,0,35.17,35.12H319.46a35.21,35.21,0,0,0,35.16-35.12V945.68A340.48,340.48,0,0,0,402.06,949H546.68a340.53,340.53,0,0,0,47.48-3.35v64.66a35.22,35.22,0,0,0,35.17,35.12H737.26a35.21,35.21,0,0,0,35.16-35.12V864.81q9.31-8,18-16.76A344,344,0,0,0,874.35,711.3h38.51c45.1,0,82-36.94,82-82.08V579.37A82.29,82.29,0,0,0,912.85,497.33ZM385.26,319.89H576.07a35.16,35.16,0,1,1,0,70.32H385.26a35.16,35.16,0,1,1,0-70.32Zm260.12,233.6-146,252.9a39.36,39.36,0,0,1-30.76,19.53c-1.05.1-2.2.15-3.34.15A39.29,39.29,0,0,1,435,811.89l-81.66-98a39.37,39.37,0,0,1,60.5-50.39l45.55,54.67,117.77-204a39.37,39.37,0,0,1,68.2,39.35Z"/></svg>
